**kern	**silbe	**kern	**silbe	**harmony	**phrase	**leadinstrument	**rhyme	**timestamp	**harte
*ICvox	*	*ICvox	*	*M4/4	*	*	*	*	*M4/4
*VRlead	*	*VRharmonize	*	*	*	*	*	*	*
*Hstimme	*	*Nstimme	*	*	*	*	*	*	*
*G:	*	*G:	*	*G:	*	*	*	*	*G:
*M4/4	*	*M4/4	*	*	*	*	*	*	*
*clefG2	*	*clefG2	*	*	*	*	*	*	*
r;	.	r;	.	1r;	.	r	.	0	N.C.
=1	=1	=1	=1	=1	=1	=1	=1	=1	=1
*>Letter>A2	*>Letter>A2	*>Letter>A2	*>Letter>A2	*>Letter>A2	*>Letter>A2	*>Letter>A2	*>Letter>A2	*>Letter>A2	*>Letter>A2
*>Label>Intro	*>Label>Intro	*>Label>Intro	*>Label>Intro	*>Label>Intro	*>Label>Intro	*>Label>Intro	*>Label>Intro	*>Label>Intro	*>Label>Intro
1r	.	1r	.	2GM	newline	synthesizer	.	0.255	G:maj
.	.	.	.	2DM	.	synthesizer	.	1.64	D:maj
=2	=2	=2	=2	=2	=2	=2	=2	=2	=2
1r	.	1r	.	1CM	.	synthesizer	.	3.024	C:maj
=3	=3	=3	=3	=3	=3	=3	=3	=3	=3
1r	.	1r	.	2GM	.	synthesizer	.	5.793	G:maj
.	.	.	.	2DM	.	synthesizer	.	7.178	D:maj
=4	=4	=4	=4	=4	=4	=4	=4	=4	=4
1r	.	1r	.	1CM	.	synthesizer	.	8.562	C:maj
=5	=5	=5	=5	=5	=5	=5	=5	=5	=5
*>Letter>A	*>Letter>A	*>Letter>A	*>Letter>A	*>Letter>A	*>Letter>A	*>Letter>A	*>Letter>A	*>Letter>A	*>Letter>A
*>Label>Verse	*>Label>Verse	*>Label>Verse	*>Label>Verse	*>Label>Verse	*>Label>Verse	*>Label>Verse	*>Label>Verse	*>Label>Verse	*>Label>Verse
4r	.	1r	.	2GM	newline	voice	.	11.331	G:maj
16B	I	.	.	.	.	.	.	.	.
8.d	don't	.	.	.	.	.	.	.	.
4d	know	.	.	2DM	.	voice	.	12.693	D:maj
16A	where	.	.	.	.	.	.	.	.
8A	I'm	.	.	.	.	.	.	.	.
[16A	go-	.	.	.	.	.	.	.	.
=6	=6	=6	=6	=6	=6	=6	=6	=6	=6
8A]	_	1r	.	1CM	.	voice	.	14.055	C:maj
4G	-in'	.	.	.	.	.	.	.	.
8r	.	.	.	.	.	.	.	.	.
2r	.	.	.	.	.	.	.	.	.
=7	=7	=7	=7	=7	=7	=7	=7	=7	=7
4r	.	1r	.	2GM	.	voice	.	16.778	G:maj
16B	but	.	.	.	.	.	.	.	.
8d	I	.	.	.	.	.	.	.	.
[16e	sure	.	.	.	.	.	.	.	.
8e]	_	.	.	2DM	.	voice	.	18.14	D:maj
8.d	know	.	.	.	.	.	.	.	.
16A#	where	.	.	.	.	.	.	.	.
8B	I've	.	.	.	.	.	.	.	.
=8	=8	=8	=8	=8	=8	=8	=8	=8	=8
8A	been	1r	.	1CM	.	voice	.	19.501	C:maj
4.G	_	.	.	.	.	.	.	.	.
2r	.	.	.	.	.	.	.	.	.
=9	=9	=9	=9	=9	=9	=9	=9	=9	=9
4r	.	1r	.	2GM	newline	voice	.	22.225	G:maj
16B	Hang-	.	.	.	.	.	.	.	.
16d	-in'	.	.	.	.	.	.	.	.
16d	on	.	.	.	.	.	.	.	.
16B	the	.	.	.	.	.	.	.	.
16d	pro-	.	.	2DM	.	voice	.	23.603	D:maj/3
16d	-mi-	.	.	.	.	.	.	.	.
4B	-ses	.	.	.	.	.	.	.	.
16A	in	.	.	.	.	.	.	.	.
16G	the	.	.	.	.	.	.	.	.
=10	=10	=10	=10	=10	=10	=10	=10	=10	=10
8A	songs	1r	.	4CM	.	voice	.	24.981	C:maj/3
16G	of	.	.	.	.	.	.	.	.
[16A	yes-	.	.	.	.	.	.	.	.
16A]	_	.	.	2CM	.	voice	.	25.671	C:maj
16A	-ter-	.	.	.	.	.	.	.	.
16G	-day	.	.	.	.	.	.	.	.
[16E	_	.	.	.	.	.	.	.	.
4E]	_	.	.	.	.	.	.	.	.
4r	.	.	.	4CM	.	voice	.	27.049	C:maj/7
=11	=11	=11	=11	=11	=11	=11	=11	=11	=11
4r	.	1r	.	1Am	newline	voice	.	27.738	A:min
16r	.	.	.	.	.	.	.	.	.
16E	And	.	.	.	.	.	.	.	.
8E	I've	.	.	.	.	.	.	.	.
8c	made	.	.	.	.	.	.	.	.
8B	up	.	.	.	.	.	.	.	.
8G	my	.	.	.	.	.	.	.	.
[8A	mind	.	.	.	.	.	A	.	.
=12	=12	=12	=12	=12	=12	=12	=12	=12	=12
2A]	_	1r	.	1DM	.	voice	.	30.473	D:maj
2r	.	.	.	.	.	.	.	.	.
=13	=13	=13	=13	=13	=13	=13	=13	=13	=13
4r	.	1r	.	1Am	.	voice	.	33.208	A:min
16r	.	.	.	.	.	.	.	.	.
16E	I	.	.	.	.	.	.	.	.
8c	ain't	.	.	.	.	.	.	.	.
8c	wast-	.	.	.	.	.	.	.	.
16B	-in'	.	.	.	.	.	.	.	.
[16A	no	.	.	.	.	.	.	.	.
16A]	_	.	.	.	.	.	.	.	.
8.G	more	.	.	.	.	.	.	.	.
=14	=14	=14	=14	=14	=14	=14	=14	=14	=14
4.A	time	1r	.	1DM	.	voice	A	35.943	D:maj
8r	.	.	.	.	.	.	.	.	.
8B	Here	.	.	.	.	.	.	.	.
8A	I	.	.	.	.	.	.	.	.
8B	go	.	.	.	.	.	.	.	.
8A	a-	.	.	.	.	.	.	.	.
=15	=15	=15	=15	=15	=15	=15	=15	=15	=15
*>Letter>B	*>Letter>B	*>Letter>B	*>Letter>B	*>Letter>B	*>Letter>B	*>Letter>B	*>Letter>B	*>Letter>B	*>Letter>B
*>Label>Preverse	*>Label>Preverse	*>Label>Preverse	*>Label>Preverse	*>Label>Preverse	*>Label>Preverse	*>Label>Preverse	*>Label>Preverse	*>Label>Preverse	*>Label>Preverse
16G	-gain	1r	.	1Em	newline	synthesizer	.	38.677	E:min
[8.E	_	.	.	.	.	.	.	.	.
4E]	_	.	.	.	.	.	.	.	.
2r	.	.	.	.	.	.	.	.	.
=16	=16	=16	=16	=16	=16	=16	=16	=16	=16
2r	.	1r	.	2Am	.	synthesizer	.	41.41	A:min
8A	Here	.	.	2CM	.	synthesizer	.	42.776	C:maj
8G	I	.	.	.	.	.	.	.	.
8A	go	.	.	.	.	.	.	.	.
16d	a-	.	.	.	.	.	.	.	.
[16B	-gain	.	.	.	.	.	.	.	.
=17	=17	=17	=17	=17	=17	=17	=17	=17	=17
2B]	_	1r	.	2GM	.	synthesizer	.	44.143	G:maj
2r	.	.	.	2Em	.	synthesizer	.	45.509	E:min
=18	=18	=18	=18	=18	=18	=18	=18	=18	=18
1r	.	1r	.	2Am	.	synthesizer	.	46.876	A:min
.	.	.	.	4CM	.	synthesizer	.	48.242	C:maj
.	.	.	.	4DM	.	synthesizer	.	48.925	D:maj
=19	=19	=19	=19	=19	=19	=19	=19	=19	=19
*>Letter>A	*>Letter>A	*>Letter>A	*>Letter>A	*>Letter>A	*>Letter>A	*>Letter>A	*>Letter>A	*>Letter>A	*>Letter>A
*>Label>Verse	*>Label>Verse	*>Label>Verse	*>Label>Verse	*>Label>Verse	*>Label>Verse	*>Label>Verse	*>Label>Verse	*>Label>Verse	*>Label>Verse
4r	.	1r	.	2GM	newline	voice	.	49.608	G:maj
16d	Though	.	.	.	.	.	.	.	.
16d	I	.	.	.	.	.	.	.	.
8d	keep	.	.	.	.	.	.	.	.
8d	search-	.	.	2DM	.	voice	.	50.973	D:maj
8B	-in'	.	.	.	.	.	.	.	.
8A	for	.	.	.	.	.	.	.	.
16B	an	.	.	.	.	.	.	.	.
[16A	ans-	.	.	.	.	.	.	.	.
=20	=20	=20	=20	=20	=20	=20	=20	=20	=20
8A]	_	1r	.	1CM	.	voice	.	52.337	C:maj
4.G	-wer	.	.	.	.	.	.	.	.
2r	.	.	.	.	.	.	.	.	.
=21	=21	=21	=21	=21	=21	=21	=21	=21	=21
8r	.	1r	.	2GM	.	voice	.	55.066	G:maj
16r	.	.	.	.	.	.	.	.	.
16G	I	.	.	.	.	.	.	.	.
16d	ne-	.	.	.	.	.	.	.	.
16d	-ver	.	.	.	.	.	.	.	.
16d	seem	.	.	.	.	.	.	.	.
16B	to	.	.	.	.	.	.	.	.
16d	find	.	.	2DM	.	voice	.	56.43	D:maj
8.B	_	.	.	.	.	.	.	.	.
16B	what	.	.	.	.	.	.	.	.
16A	I'm	.	.	.	.	.	.	.	.
8B	look-	.	.	.	.	.	.	.	.
=22	=22	=22	=22	=22	=22	=22	=22	=22	=22
8A	-ing	1r	.	1CM	.	voice	.	57.795	C:maj
16G	for	.	.	.	.	.	.	.	.
[16E	_	.	.	.	.	.	.	.	.
4E]	_	.	.	.	.	.	.	.	.
2r	.	.	.	.	.	.	.	.	.
=23	=23	=23	=23	=23	=23	=23	=23	=23	=23
8r	.	1r	.	2GM	newline	voice	.	60.523	G:maj
16g	Oh	.	.	.	.	.	.	.	.
8.g	lord	.	.	.	.	.	.	.	.
16d	I	.	.	.	.	.	.	.	.
8.e	pray	.	.	.	.	.	.	.	.
.	.	.	.	2DM	.	voice	.	61.9	D:maj/3
16d	you	.	.	.	.	.	.	.	.
8d	give	.	.	.	.	.	.	.	.
8d	me	.	.	.	.	.	.	.	.
[16e	strength	.	.	.	.	.	.	.	.
=24	=24	=24	=24	=24	=24	=24	=24	=24	=24
16e]	_	1r	.	4CM	.	voice	.	63.277	C:maj/3
16d	to	.	.	.	.	.	.	.	.
8e	ca-	.	.	.	.	.	.	.	.
16d	-rry	.	.	2CM	.	voice	.	63.965	C:maj
16A	on	.	.	.	.	.	.	.	.
16B	_	.	.	.	.	.	.	.	.
16A	_	.	.	.	.	.	.	.	.
4G	_	.	.	.	.	.	.	.	.
4r	.	.	.	4CM	.	voice	.	65.341	C:maj/7
=25	=25	=25	=25	=25	=25	=25	=25	=25	=25
4r	.	1r	.	1Am	newline	voice	.	66.03	A:min
16r	.	.	.	.	.	.	.	.	.
16e	'cause	.	.	.	.	.	.	.	.
8e	I	.	.	.	.	.	.	.	.
8g	know	.	.	.	.	.	.	.	.
8g	what	.	.	.	.	.	.	.	.
8g	it	.	.	.	.	.	B	.	.
8e	means	.	.	.	.	.	.	.	.
=26	=26	=26	=26	=26	=26	=26	=26	=26	=26
8e	_	1r	.	1DM	.	voice	.	68.725	D:maj
4.d	_	.	.	.	.	.	.	.	.
4r	.	.	.	.	.	.	.	.	.
8r	.	.	.	.	.	.	.	.	.
16r	.	.	.	.	.	.	.	.	.
16e	to	.	.	.	.	.	.	.	.
=27	=27	=27	=27	=27	=27	=27	=27	=27	=27
8g	walk	1r	.	1Am	.	voice	.	71.421	A:min
16g	a-	.	.	.	.	.	.	.	.
[16g	-long	.	.	.	.	.	.	.	.
8g]	_	.	.	.	.	.	.	.	.
16r	.	.	.	.	.	.	.	.	.
16e	the	.	.	.	.	.	.	.	.
8g	lone-	.	.	.	.	.	.	.	.
8g	-ly	.	.	.	.	.	.	.	.
16b	street	.	.	.	.	.	B	.	.
16a	_	.	.	.	.	.	.	.	.
16g	of	.	.	.	.	.	.	.	.
[16a	dreams	.	.	.	.	.	B	.	.
=28	=28	=28	=28	=28	=28	=28	=28	=28	=28
4a]	_	1r	.	2DM	.	voice	.	74.116	D:maj
8d	_	.	.	.	.	.	.	.	.
8r	.	.	.	.	.	.	.	.	.
2r	.	.	.	4CM	.	voice	.	75.464	C:maj
.	.	.	.	4DM	.	voice	.	76.138	D:maj
=29	=29	=29	=29	=29	=29	=29	=29	=29	=29
*>Letter>C	*>Letter>C	*>Letter>C	*>Letter>C	*>Letter>C	*>Letter>C	*>Letter>C	*>Letter>C	*>Letter>C	*>Letter>C
*>Label>Chorus	*>Label>Chorus	*>Label>Chorus	*>Label>Chorus	*>Label>Chorus	*>Label>Chorus	*>Label>Chorus	*>Label>Chorus	*>Label>Chorus	*>Label>Chorus
8g	Here	8b	Here	2GM	newline	voice	.	76.812	G:maj
16e	I	16a	I	.	.	.	.	.	.
[16d	go	[16g	go	.	.	.	C	.	.
16d]	_	16g]	_	.	.	.	.	.	.
16r	.	16r	.	.	.	.	.	.	.
16e	a-	16a	a-	.	.	.	.	.	.
[16g	-gain	[16b	-gain	.	.	.	.	.	.
8g]	_	8b]	_	2CM	.	voice	.	78.156	C:maj
8e	on	8g	on	.	.	.	.	.	.
8e	my	8g	my	.	.	.	.	.	.
16f#	own	16a	own	.	.	.	C	.	.
16e	_	16g	_	.	.	.	.	.	.
=30	=30	=30	=30	=30	=30	=30	=30	=30	=30
4d	_	4f#	_	2DM	.	voice	.	79.5	D:maj
4r	.	4r	.	.	.	.	.	.	.
4r	.	4r	.	4CM	.	voice	.	80.844	C:maj
8r	.	8r	.	4DM	.	voice	.	81.516	D:maj
16d	Go-	16g	Go-	.	.	.	.	.	.
16e	-ing	16a	-ing	.	.	.	.	.	.
=31	=31	=31	=31	=31	=31	=31	=31	=31	=31
8g	down	8b	down	2GM	.	voice	.	82.188	G:maj
16g	the	16b	the	.	.	.	.	.	.
8g	on-	8b	on-	.	.	.	C	.	.
8g	-ly	8b	-ly	.	.	.	.	.	.
8.a	road	8.cc	road	.	.	.	C	.	.
.	.	.	.	2CM	.	voice	.	83.533	C:maj
8g	I've	8b	I've	.	.	.	.	.	.
16g	e-	16b	e-	.	.	.	.	.	.
16g	-ver	16b	-ver	.	.	.	.	.	.
16f#	known	16a	known	.	.	.	C	.	.
16e	_	16g	_	.	.	.	.	.	.
=32	=32	=32	=32	=32	=32	=32	=32	=32	=32
8d	_	8f#	_	2DM	.	voice	.	84.877	D:maj
8r	.	8r	.	.	.	.	.	.	.
4r	.	4r	.	.	.	.	.	.	.
4r	.	4r	.	4CM	.	voice	.	86.221	C:maj
8r	.	8r	.	4DM	.	voice	.	86.893	D:maj
16d	Like	16g	Like	.	.	.	.	.	.
16e	a	16a	a	.	.	.	.	.	.
=33	=33	=33	=33	=33	=33	=33	=33	=33	=33
8g	drif-	8b	drif-	2GM	newline	voice	.	87.565	G:maj
16e	-ter	16a	-ter	.	.	.	.	.	.
[16d	I	[16g	I	.	.	.	.	.	.
16d]	_	16g]	_	.	.	.	.	.	.
8e	was	8a	was	.	.	.	.	.	.
[16g	born	[16b	born	.	.	.	.	.	.
8.g]	_	8.b]	_	2CM	.	voice	.	88.898	C:maj
16e	to	16g	to	.	.	.	.	.	.
8e	walk	8g	walk	.	.	.	.	.	.
16e	a-	16g	a-	.	.	.	.	.	.
16e	-lone	16g	-lone	.	.	.	C	.	.
=34	=34	=34	=34	=34	=34	=34	=34	=34	=34
16f#	_	16a	_	2DM	.	voice	.	90.231	D:maj
16e	_	16g	_	.	.	.	.	.	.
8d	_	8f#	_	.	.	.	.	.	.
4r	.	4r	.	.	.	.	.	.	.
2r	.	2r	.	4CM	.	voice	.	91.564	C:maj
.	.	.	.	4Bm	.	voice	.	92.231	B:1
=35	=35	=35	=35	=35	=35	=35	=35	=35	=35
4r	.	1r	.	1Am	newline	voice	.	92.897	A:min
16r	.	.	.	.	.	.	.	.	.
16c	And	.	.	.	.	.	.	.	.
8c	I've	.	.	.	.	.	.	.	.
8c	made	.	.	.	.	.	.	.	.
8c	up	.	.	.	.	.	.	.	.
8e	my	.	.	.	.	.	.	.	.
8e	mind	.	.	.	.	.	A	.	.
=36	=36	=36	=36	=36	=36	=36	=36	=36	=36
4d	_	1r	.	1DM	.	voice	.	95.556	D:maj
4r	.	.	.	.	.	.	.	.	.
2r	.	.	.	.	.	.	.	.	.
=37	=37	=37	=37	=37	=37	=37	=37	=37	=37
4r	.	1r	.	1Am	.	voice	.	98.214	A:min
16c	I	.	.	.	.	.	.	.	.
8c	ain't	.	.	.	.	.	.	.	.
[16c	wast-	.	.	.	.	.	.	.	.
8c]	_	.	.	.	.	.	.	.	.
8B	-in'	.	.	.	.	.	.	.	.
16A	no	.	.	.	.	.	.	.	.
8G	more	.	.	.	.	.	.	.	.
[16A	time	.	.	.	.	.	A	.	.
=38	=38	=38	=38	=38	=38	=38	=38	=38	=38
4A]	_	1r	.	2DM	.	voice	.	100.872	D:maj
4r	.	.	.	.	.	.	.	.	.
2r	.	.	.	4CM	.	voice	.	102.201	C:maj
.	.	.	.	4DM	.	voice	.	102.866	D:maj
=39	=39	=39	=39	=39	=39	=39	=39	=39	=39
*>Letter>A	*>Letter>A	*>Letter>A	*>Letter>A	*>Letter>A	*>Letter>A	*>Letter>A	*>Letter>A	*>Letter>A	*>Letter>A
*>Label>Verse	*>Label>Verse	*>Label>Verse	*>Label>Verse	*>Label>Verse	*>Label>Verse	*>Label>Verse	*>Label>Verse	*>Label>Verse	*>Label>Verse
8r	.	1r	.	2GM	newline	voice	.	103.531	G:maj
16r	.	.	.	.	.	.	.	.	.
16B	I'm	.	.	.	.	.	.	.	.
16B	just	.	.	.	.	.	.	.	.
16d	a-	.	.	.	.	.	.	.	.
16d	-no-	.	.	.	.	.	.	.	.
16B	-ther	.	.	.	.	.	.	.	.
8d	heart	.	.	2DM	.	voice	.	104.866	D:maj/4
8A	in	.	.	.	.	.	.	.	.
8A	need	.	.	.	.	.	.	.	.
16A	of	.	.	.	.	.	.	.	.
16B	res-	.	.	.	.	.	.	.	.
=40	=40	=40	=40	=40	=40	=40	=40	=40	=40
16A	_	1r	.	2CM	.	voice	.	106.201	C:maj/5
8.G	-cue	.	.	.	.	.	.	.	.
4r	.	.	.	.	.	.	.	.	.
2r	.	.	.	2DM	.	voice	.	107.536	D:maj/4
=41	=41	=41	=41	=41	=41	=41	=41	=41	=41
4r	.	1r	.	2GM	.	voice	.	108.871	G:maj
16B	Wait-	.	.	.	.	.	.	.	.
16d	-in'	.	.	.	.	.	.	.	.
8d	on	.	.	.	.	.	.	.	.
4e	love's	.	.	2DM	.	voice	.	110.206	D:maj/4
8A	sweet	.	.	.	.	.	.	.	.
16A	char-	.	.	.	.	.	.	.	.
16B	-i-	.	.	.	.	.	.	.	.
=42	=42	=42	=42	=42	=42	=42	=42	=42	=42
16A	-ty	1r	.	2CM	.	voice	b	111.541	C:maj/5
8.G	_	.	.	.	.	.	.	.	.
4r	.	.	.	.	.	.	.	.	.
2r	.	.	.	2DM	.	voice	.	112.876	D:maj/4
=43	=43	=43	=43	=43	=43	=43	=43	=43	=43
4r	.	1r	.	2GM	newline	voice	.	114.211	G:maj
16d	and	.	.	.	.	.	.	.	.
16d	I'm	.	.	.	.	.	.	.	.
16d	gon-	.	.	.	.	.	.	.	.
16d	-na	.	.	.	.	.	.	.	.
8g	hold	.	.	2DM	.	voice	.	115.533	D:maj/3
4e	on	.	.	.	.	.	.	.	.
16d	for	.	.	.	.	.	.	.	.
16d	the	.	.	.	.	.	.	.	.
=44	=44	=44	=44	=44	=44	=44	=44	=44	=44
8g	rest	1r	.	2CM	.	voice	.	116.854	C:maj/3
8e	of	.	.	.	.	.	.	.	.
8e	my	.	.	.	.	.	.	.	.
16B	days	.	.	.	.	.	.	.	.
16A	_	.	.	.	.	.	.	.	.
4G	_	.	.	4CM	.	voice	.	118.176	C:maj
4r	.	.	.	4CM	.	voice	.	118.836	C:maj/7
=45	=45	=45	=45	=45	=45	=45	=45	=45	=45
4r	.	1r	.	1Am	newline	voice	.	119.497	A:min
16r	.	.	.	.	.	.	.	.	.
16e	'cause	.	.	.	.	.	.	.	.
8e	I	.	.	.	.	.	.	.	.
8g	know	.	.	.	.	.	.	.	.
8g	what	.	.	.	.	.	.	.	.
8g	it	.	.	.	.	.	.	.	.
8e	means	.	.	.	.	.	B	.	.
=46	=46	=46	=46	=46	=46	=46	=46	=46	=46
8e	_	1r	.	1DM	.	voice	.	122.158	D:maj
4.d	_	.	.	.	.	.	.	.	.
4r	.	.	.	.	.	.	.	.	.
8r	.	.	.	.	.	.	.	.	.
16r	.	.	.	.	.	.	.	.	.
16e	to	.	.	.	.	.	.	.	.
=47	=47	=47	=47	=47	=47	=47	=47	=47	=47
8g	walk	1r	.	1Am	.	voice	.	124.819	A:min
16g	a-	.	.	.	.	.	.	.	.
[16g	-long	.	.	.	.	.	.	.	.
8g]	_	.	.	.	.	.	.	.	.
16r	.	.	.	.	.	.	.	.	.
16e	the	.	.	.	.	.	.	.	.
8g	lone-	.	.	.	.	.	.	.	.
8g	-ly	.	.	.	.	.	.	.	.
16b	street	.	.	.	.	.	B	.	.
16a	_	.	.	.	.	.	.	.	.
16g	of	.	.	.	.	.	.	.	.
[16a	dreams	.	.	.	.	.	B	.	.
=48	=48	=48	=48	=48	=48	=48	=48	=48	=48
4a]	_	1r	.	2DM	.	voice	.	127.48	D:maj
8d	_	.	.	.	.	.	.	.	.
8r	.	.	.	.	.	.	.	.	.
4r	.	.	.	4CM	.	voice	.	128.81	C:maj
8.r	.	.	.	4DM	.	voice	.	129.475	D:maj
16d	And	.	.	.	.	.	.	.	.
=49	=49	=49	=49	=49	=49	=49	=49	=49	=49
*>Letter>C	*>Letter>C	*>Letter>C	*>Letter>C	*>Letter>C	*>Letter>C	*>Letter>C	*>Letter>C	*>Letter>C	*>Letter>C
*>Label>Chorus	*>Label>Chorus	*>Label>Chorus	*>Label>Chorus	*>Label>Chorus	*>Label>Chorus	*>Label>Chorus	*>Label>Chorus	*>Label>Chorus	*>Label>Chorus
8g	here	8b	Here	2GM	newline	voice	.	130.141	G:maj
16e	I	16a	I	.	.	.	.	.	.
[16d	go	[16g	go	.	.	.	.	.	.
16d]	_	16g]	_	.	.	.	.	.	.
16r	.	16r	.	.	.	.	.	.	.
16e	a-	16a	a-	.	.	.	.	.	.
[16g	-gain	[16b	-gain	.	.	.	.	.	.
8g]	_	8b]	_	2CM	.	voice	.	131.473	C:maj
8e	on	8g	on	.	.	.	.	.	.
8e	my	8g	my	.	.	.	.	.	.
16f#	own	16a	own	.	.	.	C	.	.
16e	_	16g	_	.	.	.	.	.	.
=50	=50	=50	=50	=50	=50	=50	=50	=50	=50
4d	_	4f#	_	2DM	.	voice	.	132.805	D:maj
4r	.	4r	.	.	.	.	.	.	.
4r	.	4r	.	4CM	.	voice	.	134.138	C:maj
8r	.	8r	.	4DM	.	voice	.	134.804	D:maj
16d	Go-	16g	Go-	.	.	.	.	.	.
16e	-ing	16a	-ing	.	.	.	.	.	.
=51	=51	=51	=51	=51	=51	=51	=51	=51	=51
8g	down	8b	down	2GM	.	voice	.	135.47	G:maj
16g	the	16b	the	.	.	.	.	.	.
8g	on-	8b	on-	.	.	.	.	.	.
8g	-ly	8b	-ly	.	.	.	.	.	.
8.a	road	8.cc	road	.	.	.	C	.	.
.	.	.	.	2CM	.	voice	.	136.803	C:maj
8g	I've	8b	I've	.	.	.	.	.	.
16g	e-	16b	e-	.	.	.	.	.	.
16g	-ver	16b	-ver	.	.	.	.	.	.
16f#	known	16a	known	.	.	.	C	.	.
16e	_	16g	_	.	.	.	.	.	.
=52	=52	=52	=52	=52	=52	=52	=52	=52	=52
8d	_	8f#	_	2DM	.	voice	.	138.135	D:maj
8r	.	8r	.	.	.	.	.	.	.
4r	.	4r	.	.	.	.	.	.	.
4r	.	4r	.	4CM	.	voice	.	139.467	C:maj
8r	.	8r	.	4DM	.	voice	.	140.133	D:maj
16d	Like	16g	Like	.	.	.	.	.	.
16e	a	16a	a	.	.	.	.	.	.
=53	=53	=53	=53	=53	=53	=53	=53	=53	=53
8g	drif-	8b	drif-	2GM	newline	voice	.	140.8	G:maj
16e	-ter	16a	-ter	.	.	.	.	.	.
[16d	I	[16g	I	.	.	.	.	.	.
16d]	_	16g]	_	.	.	.	.	.	.
8e	was	8a	was	.	.	.	.	.	.
[16g	born	[16b	born	.	.	.	.	.	.
8.g]	_	8.b]	_	2CM	.	voice	.	142.125	C:maj
16e	to	16g	to	.	.	.	.	.	.
8e	walk	8g	walk	.	.	.	.	.	.
16e	a-	16g	a-	.	.	.	.	.	.
16e	-lone	16g	-lone	.	.	.	C	.	.
=54	=54	=54	=54	=54	=54	=54	=54	=54	=54
16f#	_	16a	_	2DM	.	voice	.	143.45	D:maj
16e	_	16g	_	.	.	.	.	.	.
8d	_	8f#	_	.	.	.	.	.	.
4r	.	4r	.	.	.	.	.	.	.
2r	.	2r	.	4CM	.	voice	.	144.775	C:maj
.	.	.	.	4Bm	.	voice	.	145.438	B:1
=55	=55	=55	=55	=55	=55	=55	=55	=55	=55
4r	.	1r	.	1Am	newline	voice	.	146.1	A:min
16r	.	.	.	.	.	.	.	.	.
16e	And	.	.	.	.	.	.	.	.
8e	I've	.	.	.	.	.	.	.	.
8b	made	.	.	.	.	.	.	.	.
8a	up	.	.	.	.	.	.	.	.
8g	my	.	.	.	.	.	.	.	.
[8a	mind	.	.	.	.	.	A	.	.
=56	=56	=56	=56	=56	=56	=56	=56	=56	=56
8a]	_	1r	.	1DM	.	voice	.	148.767	D:maj
8d	_	.	.	.	.	.	.	.	.
4r	.	.	.	.	.	.	.	.	.
2r	.	.	.	.	.	.	.	.	.
=57	=57	=57	=57	=57	=57	=57	=57	=57	=57
4r	.	1r	.	1Am	.	voice	.	151.434	A:min
16r	.	.	.	.	.	.	.	.	.
16g	I	.	.	.	.	.	.	.	.
8g	ain't	.	.	.	.	.	.	.	.
8b	wast-	.	.	.	.	.	.	.	.
16a	-in'	.	.	.	.	.	.	.	.
[16g	no	.	.	.	.	.	.	.	.
16g]	_	.	.	.	.	.	.	.	.
8g	more	.	.	.	.	.	.	.	.
[16a	time	.	.	.	.	.	A	.	.
=58	=58	=58	=58	=58	=58	=58	=58	=58	=58
8a]	_	1r	.	2DM	.	voice	.	154.101	D:maj
8d	_	.	.	.	.	.	.	.	.
8r	.	.	.	.	.	.	.	.	.
8d	And	.	.	.	.	.	.	.	.
8b	here	.	.	4CM	.	voice	.	155.435	C:maj
8a	I	.	.	.	.	.	.	.	.
8b	go	.	.	4DM	.	voice	.	156.101	D:maj
16a	a-	.	.	.	.	.	.	.	.
16g	-gain	.	.	.	.	.	.	.	.
=59	=59	=59	=59	=59	=59	=59	=59	=59	=59
*>Letter>D	*>Letter>D	*>Letter>D	*>Letter>D	*>Letter>D	*>Letter>D	*>Letter>D	*>Letter>D	*>Letter>D	*>Letter>D
*>Label>Bridge	*>Label>Bridge	*>Label>Bridge	*>Label>Bridge	*>Label>Bridge	*>Label>Bridge	*>Label>Bridge	*>Label>Bridge	*>Label>Bridge	*>Label>Bridge
4e	_	1r	.	1Em	newline	synthesizer	.	156.768	E:min
4r	.	.	.	.	.	.	.	.	.
2r	.	.	.	.	.	.	.	.	.
=60	=60	=60	=60	=60	=60	=60	=60	=60	=60
2r	.	1r	.	1Am	.	synthesizer	.	159.431	A:min
8b	Here	.	.	.	.	.	.	.	.
8b	I	.	.	.	.	.	.	.	.
8b	go	.	.	.	.	.	.	.	.
16a	a-	.	.	.	.	.	.	.	.
[16g	-gain	.	.	.	.	.	.	.	.
=61	=61	=61	=61	=61	=61	=61	=61	=61	=61
16g]	_	1r	.	1Em	.	synthesizer	.	162.093	E:min
8.e	_	.	.	.	.	.	.	.	.
4r	.	.	.	.	.	.	.	.	.
2r	.	.	.	.	.	.	.	.	.
=62	=62	=62	=62	=62	=62	=62	=62	=62	=62
2r	.	1r	.	1Am	.	synthesizer	.	164.755	A:min
8a	Here	.	.	.	.	.	.	.	.
8g	I	.	.	.	.	.	.	.	.
8a	go	.	.	.	.	.	.	.	.
16g	a-	.	.	.	.	.	.	.	.
[16b	-gain	.	.	.	.	.	.	.	.
=63	=63	=63	=63	=63	=63	=63	=63	=63	=63
8b]	_	1r	.	1Em	newline	synthesizer	.	167.418	E:min
16dd	_	.	.	.	.	.	.	.	.
16b	_	.	.	.	.	.	.	.	.
16a	_	.	.	.	.	.	.	.	.
16g	_	.	.	.	.	.	.	.	.
8e	_	.	.	.	.	.	.	.	.
2r	.	.	.	.	.	.	.	.	.
=64	=64	=64	=64	=64	=64	=64	=64	=64	=64
2r	.	1r	.	1Am	.	synthesizer	.	170.086	A:min
8a	Here	.	.	.	.	.	.	.	.
8g	I	.	.	.	.	.	.	.	.
[4ff#	go	.	.	.	.	.	C	.	.
=65	=65	=65	=65	=65	=65	=65	=65	=65	=65
4.ff#]	_	1r	.	1Em	.	synthesizer	.	172.755	E:min
4.ee	_	.	.	.	.	.	.	.	.
4r	.	.	.	.	.	.	.	.	.
=66	=66	=66	=66	=66	=66	=66	=66	=66	=66
1r	.	1r	.	2Am	.	synthesizer	.	175.424	A:min
.	.	.	.	4CM	.	synthesizer	.	176.758	C:maj
.	.	.	.	4DM	.	synthesizer	.	177.425	D:maj
=67	=67	=67	=67	=67	=67	=67	=67	=67	=67
*>Letter>A	*>Letter>A	*>Letter>A	*>Letter>A	*>Letter>A	*>Letter>A	*>Letter>A	*>Letter>A	*>Letter>A	*>Letter>A
*>Label>Solo	*>Label>Solo	*>Label>Solo	*>Label>Solo	*>Label>Solo	*>Label>Solo	*>Label>Solo	*>Label>Solo	*>Label>Solo	*>Label>Solo
1r	.	1r	.	2GM	newline	guitar	.	178.092	G:maj
.	.	.	.	2DM	.	guitar	.	179.421	D:maj/4
=68	=68	=68	=68	=68	=68	=68	=68	=68	=68
1r	.	1r	.	2CM	.	guitar	.	180.751	C:maj/5
.	.	.	.	2DM	.	guitar	.	182.08	D:maj/4
=69	=69	=69	=69	=69	=69	=69	=69	=69	=69
1r	.	1r	.	2GM	.	guitar	.	183.409	G:maj
.	.	.	.	2DM	.	guitar	.	184.738	D:maj/4
=70	=70	=70	=70	=70	=70	=70	=70	=70	=70
1r	.	1r	.	2CM	.	guitar	.	186.067	C:maj/5
.	.	.	.	2DM	.	guitar	.	187.396	D:maj/4
=71	=71	=71	=71	=71	=71	=71	=71	=71	=71
1r	.	1r	.	2GM	newline	guitar	.	188.726	G:maj
.	.	.	.	2DM	.	guitar	.	190.053	D:maj/3
=72	=72	=72	=72	=72	=72	=72	=72	=72	=72
1r	.	1r	.	2CM	.	guitar	.	191.38	C:maj/3
.	.	.	.	4CM	.	guitar	.	192.707	C:maj
.	.	.	.	4CM	.	guitar	.	193.371	C:maj/7
=73	=73	=73	=73	=73	=73	=73	=73	=73	=73
4r	.	1r	.	1Am	newline	voice	.	194.034	A:min
16r	.	.	.	.	.	.	.	.	.
16e	'cause	.	.	.	.	.	.	.	.
8e	I	.	.	.	.	.	.	.	.
8g	know	.	.	.	.	.	.	.	.
8g	what	.	.	.	.	.	.	.	.
8g	it	.	.	.	.	.	.	.	.
8e	means	.	.	.	.	.	B	.	.
=74	=74	=74	=74	=74	=74	=74	=74	=74	=74
8e	_	1r	.	1DM	.	voice	.	196.696	D:maj
4.d	_	.	.	.	.	.	.	.	.
4r	.	.	.	.	.	.	.	.	.
8r	.	.	.	.	.	.	.	.	.
16r	.	.	.	.	.	.	.	.	.
16e	to	.	.	.	.	.	.	.	.
=75	=75	=75	=75	=75	=75	=75	=75	=75	=75
8g	walk	1r	.	1Am	.	voice	.	199.358	A:min
16g	a-	.	.	.	.	.	.	.	.
[16g	-long	.	.	.	.	.	.	.	.
8g]	_	.	.	.	.	.	.	.	.
16r	.	.	.	.	.	.	.	.	.
16e	the	.	.	.	.	.	.	.	.
8g	lone-	.	.	.	.	.	.	.	.
8g	-ly	.	.	.	.	.	.	.	.
16b	street	.	.	.	.	.	B	.	.
16a	_	.	.	.	.	.	.	.	.
16g	of	.	.	.	.	.	.	.	.
[16a	dreams	.	.	.	.	.	B	.	.
=76	=76	=76	=76	=76	=76	=76	=76	=76	=76
8a]	_	1r	.	2DM	.	voice	.	202.021	D:maj
8b	_	.	.	.	.	.	.	.	.
4r	.	.	.	.	.	.	.	.	.
4r	.	.	.	4CM	.	voice	.	203.352	C:maj
8r	.	.	.	4DM	.	voice	.	204.017	D:maj
16r	.	.	.	.	.	.	.	.	.
16d	And	.	.	.	.	.	.	.	.
=77	=77	=77	=77	=77	=77	=77	=77	=77	=77
*>Letter>C	*>Letter>C	*>Letter>C	*>Letter>C	*>Letter>C	*>Letter>C	*>Letter>C	*>Letter>C	*>Letter>C	*>Letter>C
*>Label>Chorus	*>Label>Chorus	*>Label>Chorus	*>Label>Chorus	*>Label>Chorus	*>Label>Chorus	*>Label>Chorus	*>Label>Chorus	*>Label>Chorus	*>Label>Chorus
8g	here	8b	Here	2GM	newline	voice	.	204.683	G:maj
16e	I	16a	I	.	.	.	.	.	.
[16d	go	[16g	go	.	.	.	.	.	.
16d]	_	16g]	_	.	.	.	.	.	.
16r	.	16r	.	.	.	.	.	.	.
16e	a-	16a	a-	.	.	.	.	.	.
[16g	-gain	[16b	-gain	.	.	.	.	.	.
8g]	_	8b]	_	2CM	.	voice	.	206.016	C:maj
8e	on	8g	on	.	.	.	.	.	.
8e	my	8g	my	.	.	.	.	.	.
16f#	own	16a	own	.	.	.	C	.	.
16e	_	16g	_	.	.	.	.	.	.
=78	=78	=78	=78	=78	=78	=78	=78	=78	=78
4d	_	4f#	_	2DM	.	voice	.	207.349	D:maj
4r	.	4r	.	.	.	.	.	.	.
4r	.	4r	.	4CM	.	voice	.	208.682	C:maj
8r	.	8r	.	4DM	.	voice	.	209.349	D:maj
16d	Go-	16g	Go-	.	.	.	.	.	.
16e	-ing	16a	-ing	.	.	.	.	.	.
=79	=79	=79	=79	=79	=79	=79	=79	=79	=79
8g	down	8b	down	2GM	.	voice	.	210.015	G:maj
16g	the	16b	the	.	.	.	.	.	.
8g	on-	8b	on-	.	.	.	.	.	.
8g	-ly	8b	-ly	.	.	.	.	.	.
8.a	road	8.cc	road	.	.	.	C	.	.
.	.	.	.	2CM	.	voice	.	211.349	C:maj
8g	I've	8b	I've	.	.	.	.	.	.
16g	e-	16b	e-	.	.	.	.	.	.
16g	-ver	16b	-ver	.	.	.	.	.	.
[8a	known	[8cc	known	.	.	.	C	.	.
=80	=80	=80	=80	=80	=80	=80	=80	=80	=80
16a]	_	16cc]	_	2DM	.	voice	.	212.682	D:maj
16b	_	16dd	_	.	.	.	.	.	.
8r	.	8r	.	.	.	.	.	.	.
4r	.	4r	.	.	.	.	.	.	.
4r	.	4r	.	4CM	.	voice	.	214.015	C:maj
8r	.	8r	.	4DM	.	voice	.	214.681	D:maj
16d	Like	16g	Like	.	.	.	.	.	.
16e	a	16a	a	.	.	.	.	.	.
=81	=81	=81	=81	=81	=81	=81	=81	=81	=81
8g	drif-	8b	drif-	2GM	newline	voice	.	215.348	G:maj
16e	-ter	16a	-ter	.	.	.	.	.	.
[16d	I	[16g	I	.	.	.	.	.	.
16d]	_	16g]	_	.	.	.	.	.	.
8e	was	8a	was	.	.	.	.	.	.
[16g	born	[16b	born	.	.	.	.	.	.
8.g]	_	8.b]	_	2CM	.	voice	.	216.677	C:maj
16e	to	16g	to	.	.	.	.	.	.
8e	walk	8g	walk	.	.	.	.	.	.
16e	a-	16g	a-	.	.	.	.	.	.
16e	-lone	16g	-lone	.	.	.	C	.	.
=82	=82	=82	=82	=82	=82	=82	=82	=82	=82
16f#	_	16a	_	2DM	.	voice	.	218.006	D:maj
16e	_	16g	_	.	.	.	.	.	.
8d	_	8f#	_	.	.	.	.	.	.
4r	.	4r	.	.	.	.	.	.	.
2r	.	2r	.	4CM	.	voice	.	219.335	C:maj
.	.	.	.	4Bm	.	voice	.	219.999	B:1
=83	=83	=83	=83	=83	=83	=83	=83	=83	=83
4r	.	1r	.	1Am	newline	voice	.	220.663	A:min
16r	.	.	.	.	.	.	.	.	.
16e	And	.	.	.	.	.	.	.	.
8e	I've	.	.	.	.	.	.	.	.
8b	made	.	.	.	.	.	.	.	.
8a	up	.	.	.	.	.	.	.	.
8g	my	.	.	.	.	.	.	.	.
[8a	mind	.	.	.	.	.	A	.	.
=84	=84	=84	=84	=84	=84	=84	=84	=84	=84
8a]	_	1r	.	1DM	.	voice	.	223.317	D:maj
8d	_	.	.	.	.	.	.	.	.
4r	.	.	.	.	.	.	.	.	.
2r	.	.	.	.	.	.	.	.	.
=85	=85	=85	=85	=85	=85	=85	=85	=85	=85
4r	.	1r	.	1Am	.	voice	.	225.97	A:min
16r	.	.	.	.	.	.	.	.	.
16g	I	.	.	.	.	.	.	.	.
8g	ain't	.	.	.	.	.	.	.	.
8b	wast-	.	.	.	.	.	.	.	.
16a	-in'	.	.	.	.	.	.	.	.
[16g	no	.	.	.	.	.	.	.	.
16g]	_	.	.	.	.	.	.	.	.
8g	more	.	.	.	.	.	.	.	.
[16a	time	.	.	.	.	.	A	.	.
=86	=86	=86	=86	=86	=86	=86	=86	=86	=86
8a]	_	1r	.	2DM	.	voice	.	228.623	D:maj
8d	_	.	.	.	.	.	.	.	.
8r	.	.	.	.	.	.	.	.	.
8r	.	.	.	.	.	.	.	.	.
4r	.	.	.	4CM	.	voice	.	229.949	C:maj
8r	.	.	.	4DM	.	voice	.	230.613	D:maj
16r	.	.	.	.	.	.	.	.	.
16d	And	.	.	.	.	.	.	.	.
=87	=87	=87	=87	=87	=87	=87	=87	=87	=87
*>Letter>C	*>Letter>C	*>Letter>C	*>Letter>C	*>Letter>C	*>Letter>C	*>Letter>C	*>Letter>C	*>Letter>C	*>Letter>C
*>Label>Chorus	*>Label>Chorus	*>Label>Chorus	*>Label>Chorus	*>Label>Chorus	*>Label>Chorus	*>Label>Chorus	*>Label>Chorus	*>Label>Chorus	*>Label>Chorus
8g	here	8b	Here	2GM	newline	voice	.	231.276	G:maj
16e	I	16a	I	.	.	.	.	.	.
[16d	go	[16g	go	.	.	.	.	.	.
16d]	_	16g]	_	.	.	.	.	.	.
16r	.	16r	.	.	.	.	.	.	.
16e	a-	16a	a-	.	.	.	.	.	.
[16g	-gain	[16b	-gain	.	.	.	.	.	.
8g]	_	8b]	_	2CM	.	voice	.	232.61	C:maj
8e	on	8g	on	.	.	.	.	.	.
8e	my	8g	my	.	.	.	.	.	.
16f#	own	16a	own	.	.	.	C	.	.
16e	_	16g	_	.	.	.	.	.	.
=88	=88	=88	=88	=88	=88	=88	=88	=88	=88
4d	_	4f#	_	2DM	.	voice	.	233.945	D:maj
4r	.	4r	.	.	.	.	.	.	.
4r	.	4r	.	4CM	.	voice	.	235.279	C:maj
8r	.	8r	.	4DM	.	voice	.	235.946	D:maj
16d	Go-	16g	Go-	.	.	.	.	.	.
16e	-ing	16a	-ing	.	.	.	.	.	.
=89	=89	=89	=89	=89	=89	=89	=89	=89	=89
8g	down	8b	down	2GM	.	voice	.	236.613	G:maj
16g	the	16b	the	.	.	.	.	.	.
8g	on-	8b	on-	.	.	.	.	.	.
8g	-ly	8b	-ly	.	.	.	.	.	.
8.a	road	8.cc	road	.	.	.	C	.	.
.	.	.	.	2CM	.	voice	.	237.947	C:maj
8g	I've	8b	I've	.	.	.	.	.	.
16g	e-	16b	e-	.	.	.	.	.	.
16g	-ver	16b	-ver	.	.	.	.	.	.
[8a	known	[8cc	known	.	.	.	C	.	.
=90	=90	=90	=90	=90	=90	=90	=90	=90	=90
16a]	_	16cc]	_	2DM	.	voice	.	239.282	D:maj
16b	_	16dd	_	.	.	.	.	.	.
8r	.	8r	.	.	.	.	.	.	.
4r	.	4r	.	.	.	.	.	.	.
4r	.	4r	.	4CM	.	voice	.	240.616	C:maj
8r	.	8r	.	4DM	.	voice	.	241.283	D:maj
16d	Like	16g	Like	.	.	.	.	.	.
16e	a	16a	a	.	.	.	.	.	.
=91	=91	=91	=91	=91	=91	=91	=91	=91	=91
8g	drif-	8b	drif-	2GM	newline	voice	.	241.95	G:maj
16e	-ter	16a	-ter	.	.	.	.	.	.
[16d	I	[16g	I	.	.	.	.	.	.
16d]	_	16g]	_	.	.	.	.	.	.
8e	was	8a	was	.	.	.	.	.	.
[16g	born	[16b	born	.	.	.	.	.	.
8.g]	_	8.b]	_	2CM	.	voice	.	243.281	C:maj
16e	to	16g	to	.	.	.	.	.	.
8e	walk	8g	walk	.	.	.	.	.	.
16e	a-	16g	a-	.	.	.	.	.	.
16e	-lone	16g	-lone	.	.	.	C	.	.
=92	=92	=92	=92	=92	=92	=92	=92	=92	=92
16f#	_	16a	_	2DM	.	voice	.	244.611	D:maj
16e	_	16g	_	.	.	.	.	.	.
8d	_	8f#	_	.	.	.	.	.	.
4r	.	4r	.	.	.	.	.	.	.
2r	.	2r	.	4CM	.	voice	.	245.942	C:maj
.	.	.	.	4Bm	.	voice	.	246.607	B:1
=93	=93	=93	=93	=93	=93	=93	=93	=93	=93
4r	.	1r	.	1Am	newline	voice	.	247.272	A:min
16r	.	.	.	.	.	.	.	.	.
16e	'Cause	.	.	.	.	.	.	.	.
8e	I	.	.	.	.	.	.	.	.
8b	know	.	.	.	.	.	C	.	.
8a	what	.	.	.	.	.	.	.	.
8g	it	.	.	.	.	.	.	.	.
[8a	means	.	.	.	.	.	B	.	.
=94	=94	=94	=94	=94	=94	=94	=94	=94	=94
8a]	_	1r	.	1DM	.	voice	.	249.929	D:maj
8d	_	.	.	.	.	.	.	.	.
4r	.	.	.	.	.	.	.	.	.
4r	.	.	.	.	.	.	.	.	.
8.r	.	.	.	.	.	.	.	.	.
16e	To	.	.	.	.	.	.	.	.
=95	=95	=95	=95	=95	=95	=95	=95	=95	=95
8g	walk	1r	.	1Am	.	voice	.	252.586	A:min
16g	a-	.	.	.	.	.	.	.	.
[16g	-long	.	.	.	.	.	.	.	.
8g]	_	.	.	.	.	.	.	.	.
16r	.	.	.	.	.	.	.	.	.
16g	the	.	.	.	.	.	.	.	.
8b	lon-	.	.	.	.	.	.	.	.
8cc	-ely	.	.	.	.	.	.	.	.
8.dd	street	.	.	.	.	.	B	.	.
16dd	of	.	.	.	.	.	.	.	.
=96	=96	=96	=96	=96	=96	=96	=96	=96	=96
8b	dreams	1r	.	2DM	.	voice	B	255.244	D:maj
8a	_	.	.	.	.	.	.	.	.
4r	.	.	.	.	.	.	.	.	.
4r	.	.	.	4CM	.	voice	.	256.572	C:maj
8r	.	.	.	4DM	.	voice	.	257.237	D:maj
16r	.	.	.	.	.	.	.	.	.
16d	And	.	.	.	.	.	.	.	.
=97	=97	=97	=97	=97	=97	=97	=97	=97	=97
*>Letter>C	*>Letter>C	*>Letter>C	*>Letter>C	*>Letter>C	*>Letter>C	*>Letter>C	*>Letter>C	*>Letter>C	*>Letter>C
*>Label>Fadeout	*>Label>Fadeout	*>Label>Fadeout	*>Label>Fadeout	*>Label>Fadeout	*>Label>Fadeout	*>Label>Fadeout	*>Label>Fadeout	*>Label>Fadeout	*>Label>Fadeout
8g	here	8b	Here	2GM	newline	voice	.	257.901	G:maj
16e	I	16a	I	.	.	.	.	.	.
[16d	go	[16g	go	.	.	.	.	.	.
16d]	_	16g]	_	.	.	.	.	.	.
16r	.	16r	.	.	.	.	.	.	.
16e	a-	16a	a-	.	.	.	.	.	.
[16g	-gain	[16b	-gain	.	.	.	.	.	.
8g]	_	8b]	_	2CM	.	voice	.	259.238	C:maj
8e	on	8g	on	.	.	.	.	.	.
8e	my	8g	my	.	.	.	.	.	.
16f#	own	16a	own	.	.	.	C	.	.
16e	_	16g	_	.	.	.	.	.	.
=98	=98	=98	=98	=98	=98	=98	=98	=98	=98
4d	_	4f#	_	2DM	.	voice	.	260.576	D:maj
4r	.	4r	.	.	.	.	.	.	.
4r	.	4r	.	4CM	.	voice	.	261.913	C:maj
8r	.	8r	.	4DM	.	voice	.	262.582	D:maj
16d	Go-	16g	Go-	.	.	.	.	.	.
16e	-ing	16a	-ing	.	.	.	.	.	.
=99	=99	=99	=99	=99	=99	=99	=99	=99	=99
8g	down	8b	down	2GM	.	voice	.	263.251	G:maj
16g	the	16b	the	.	.	.	.	.	.
8g	on-	8b	on-	.	.	.	.	.	.
8g	-ly	8b	-ly	.	.	.	.	.	.
8.a	road	8.cc	road	.	.	.	C	.	.
.	.	.	.	2CM	.	voice	.	264.588	C:maj
8g	I've	8b	I've	.	.	.	.	.	.
16g	e-	16b	e-	.	.	.	.	.	.
16g	-ver	16b	-ver	.	.	.	.	.	.
[8a	known	[8cc	known	.	.	.	C	.	.
=100	=100	=100	=100	=100	=100	=100	=100	=100	=100
16a]	_	16cc]	_	2DM	.	voice	.	265.926	D:maj
16b	_	16dd	_	.	.	.	.	.	.
8r	.	8r	.	.	.	.	.	.	.
4r	.	4r	.	.	.	.	.	.	.
4r	.	4r	.	4CM	.	voice	.	267.263	C:maj
8r	.	8r	.	4DM	.	voice	.	267.932	D:maj
16d	Like	16g	Like	.	.	.	.	.	.
16e	a	16a	a	.	.	.	.	.	.
=101	=101	=101	=101	=101	=101	=101	=101	=101	=101
8g	drif-	8b	drif-	2GM	newline	voice	.	268.601	G:maj
16e	-ter	16a	-ter	.	.	.	.	.	.
[16d	I	[16g	I	.	.	.	.	.	.
16d]	_	16g]	_	.	.	.	.	.	.
8e	was	8a	was	.	.	.	.	.	.
[16g	born	[16b	born	.	.	.	.	.	.
8.g]	_	8.b]	_	2CM	.	voice	.	269.59	C:maj
16e	to	16g	to	.	.	.	.	.	.
8e	walk	8g	walk	.	.	.	.	.	.
16e	a-	16g	a-	.	.	.	.	.	.
16e	-lone	16g	-lone	.	.	.	C	.	.
=102	=102	=102	=102	=102	=102	=102	=102	=102	=102
16f#	_	16a	_	2DM	.	voice	.	270.578	D:maj
16e	_	16g	_	.	.	.	.	.	.
8d	_	8f#	_	.	.	.	.	.	.
4r	.	4r	.	.	.	.	.	.	.
2r	.	2r	.	4CM	.	voice	.	271.567	C:maj
.	.	.	.	4Bm	.	voice	.	272.061	B:1
r;	.	r;	.	1r;	.	r	.	272.556	N.C.
r;	.	r;	.	1r;	.	r	.	278.309	N.C.
*-	*-	*-	*-	*-	*-	*-	*-	*-	*-
!!!BillboardChartDate: 1987/09/26
!!!BillboardPeak: 1
!!!BillboardWeeksOnChart: 28
!!!COC: Whitesnake
!!!ENC: Nathaniel Condit-Schultz
!!!EST: Awating manual error checking and editing.
!!!OTL: Here I Go Again
!!!RDF**chordsym: original McGill chord annotation + (implied pitch class set, with bass pitch in first position)
!!!RDF**harmony: **recip + pitch class of root + harmonic quality
!!!RDF**leadinstrument: original McGill primary instrumentation annotation
!!!RDF**phrase: newline = linebreak in original McGill transcription
!!!RDF**timestamp: McGill audio timestamp in seconds
!!!RDT: 2017/01/12/
!!!SampleActualRank: 2
!!!SampleID#: 0300
!!!SampleTargetRank: 1
